X: 115
T: Wszelki naród, wszelkie plemię,
C: Mikołaj Gomółka
%%abc-version 2.0
%%abcx-abcm2ps-target-version 5.9.1 (29 Sep 2008)
%%abc-creator hum2abc beta
%%abcx-conversion-date 2021/10/04 07:59:10
%%abc-edited-by Leszek Kubiak
%%abcx-initial-encoding-date data 2020-02-19
%%humdrum-veritas 696372287
%%humdrum-veritas-data 1462653523
%%linebreak <none>
%%barnumbers 0
L: 1/4
M: C|
N: Derived from pl-wn--sd-xvi-qu-273--117_gomolka-mikolaj--wszelki-narod-wszelkie-plemie.krn
%%staves [1 2 3 4]
V: 1
V: 2 clef=alto
V: 3 clef=alto
V: 4 clef=bass
K: F
[V:1] A4A2A2 [|] 
[V:2] F4E2E2 [|] 
[V:3] D4C2C2 [|] 
[V:4] D,4A,2A,2 [|] 
[V:1] c4B2A4 [|] 
[V:2] A4G2FE [|] 
[V:3] F2>E2D2C2 [|] 
[V:4] F,4G,2A,2 [|] 
[V:1] G2A2A2 [|] 
[V:2] DCD2C2E2 [|] 
[V:3] D4E2C2 [|] 
[V:4] B,4A,2A,,2 [|] 
[V:1] A2F2G4 [|] 
[V:2] E2D2>C2B,2 [|] 
[V:3] C2B,2>C2D2 [|] 
[V:4] A,,2B,,2G,,4 [|] 
[V:1] F2F4E2 [|] 
[V:2] A,2D2C3B, [|] 
[V:3] C2B,A,G,F,G,2 [|] 
[V:4] A,,2B,,2C,4 | 
[V:1] F2A2B2AG [|] 
[V:2] A,2F2F2E2 [|] 
[V:3] F,2C2D2B,2 [|] 
[V:4] F,,2F,2B,2G,2 [|] 
[V:1] A2Bcd2c2 [|] 
[V:2] F4F2F2 [|] 
[V:3] C2D2>E2F4 [|] 
[V:4] F,2B,4A,2 [|] 
[V:1] B4A2c2 [|] 
[V:2] D2B,2C2G2 [|] 
[V:3] E2F2E2 [|] 
[V:4] G,4F,2C,2 [|] 
[V:1] A2B2G4 [|] 
[V:2] F2F2_E2E3 [|] 
[V:3] D2>C2B,A,G,2 [|] 
[V:4] D,2B,,2E,3D, [|] 
[V:1] F2F4E2 [|] 
[V:2] DDC/B,/C3B, [|] 
[V:3] CB,A,G,/F,/G,4 [|] 
[V:4] C,2D,2C,4 [|] 
[V:1] F32 [|] 
[V:2] A,32 [|] 
[V:3] F,32 [|] 
[V:4] F,,32 [|] 


